src/img/icons/gato_feliz22.svg

<svg width="30" height="30" viewBox="0 0 30 30" fill="none" xmlns="http://www.w3.org/2000/svg">
<path fill-rule="evenodd" clip-rule="evenodd" d="M15.0904 22.9756C14.9587 22.9771 14.8067 23.0603 14.7241 23.1161C13.9807 23.6185 13.0918 23.6902 12.0941 23.3063C11.2019 22.9629 11.6894 21.6733 12.2117 21.8964C13.1453 22.295 13.5599 21.9429 14.6028 21.3491C14.7558 21.2619 14.9829 21.2535 15.0776 21.2534C15.0789 21.2534 15.0801 21.2534 15.0814 21.2534C15.1761 21.2535 15.4032 21.2619 15.5562 21.3491C16.5991 21.9429 16.9925 22.2417 17.9473 21.8964C18.6096 21.657 18.983 22.9629 18.0907 23.3063C17.0929 23.6902 16.204 23.6185 15.4606 23.1161C15.3782 23.0603 15.2261 22.9771 15.0944 22.9756C15.093 22.9756 15.0917 22.9756 15.0904 22.9756Z" fill="#3D3D3D"/>
<path fill-rule="evenodd" clip-rule="evenodd" d="M14.953 11.9681C16.1739 11.9413 17.0669 12.0404 18.2365 12.2673L21.019 10.5296C21.3031 10.3522 21.6488 10.301 21.9725 10.3885C22.2963 10.476 22.5686 10.6942 22.7239 10.9904C25.3645 16.0286 25.6375 21.2246 22.5171 25.1613C22.0344 25.7703 21.446 26.2409 20.8744 26.6794C20.3484 27.0829 19.5925 26.985 19.1875 26.4608C18.7825 25.9366 18.8809 25.1834 19.4069 24.7799C19.828 24.4568 20.2738 24.124 20.6293 23.6754C22.9364 20.7647 22.803 17.0103 21.157 13.2724L19.1071 14.5526C18.8438 14.717 18.5269 14.7735 18.2227 14.7102C17.0864 14.4739 16.2926 14.3551 15.2258 14.3618C15.1687 14.3682 15.1107 14.3708 15.0518 14.3688C15.0185 14.3678 14.9857 14.3669 14.953 14.3661C14.9203 14.3669 14.8874 14.3678 14.8542 14.3688C14.7952 14.3708 14.7372 14.3682 14.6803 14.3618C13.6133 14.3551 12.8196 14.4739 11.6834 14.7102C11.3791 14.7735 11.0622 14.717 10.7988 14.5526L8.74894 13.2724C7.10299 17.0103 6.96958 20.7647 9.27665 23.6754C9.63219 24.124 10.078 24.4568 10.4991 24.7799C11.0252 25.1834 11.1234 25.9366 10.7184 26.4608C10.3135 26.985 9.55772 27.0829 9.03167 26.6794C8.45991 26.2409 7.87159 25.7703 7.38881 25.1613C4.26846 21.2246 4.54143 16.0286 7.18208 10.9904C7.33745 10.6942 7.60978 10.476 7.93347 10.3885C8.25717 10.301 8.60282 10.3522 8.88696 10.5296L11.6696 12.2673C12.8391 12.0404 13.7321 11.9413 14.953 11.9681Z" fill="#3D3D3D"/>
<path fill-rule="evenodd" clip-rule="evenodd" d="M17.213 19.4973C17.0434 19.8386 16.6278 19.9783 16.2854 19.8093C15.943 19.6403 15.8028 19.2261 15.9724 18.8848C16.3077 18.2104 17.0386 17.7899 17.8052 17.7482C18.5761 17.7062 19.3607 18.0377 19.785 18.7918C19.9718 19.124 19.8529 19.5447 19.5196 19.7308C19.1862 19.917 18.7641 19.7985 18.5772 19.4665C18.4302 19.2052 18.1477 19.1113 17.8808 19.1258C17.6092 19.1406 17.3318 19.2585 17.213 19.4973Z" fill="#3D3D3D"/>
<path fill-rule="evenodd" clip-rule="evenodd" d="M11.4729 19.5594C11.3033 19.9006 10.8875 20.0403 10.5452 19.8713C10.2028 19.7023 10.0626 19.2881 10.2322 18.9469C10.5674 18.2725 11.2984 17.8519 12.0649 17.8102C12.8359 17.7681 13.6205 18.0996 14.0447 18.8539C14.2315 19.1859 14.1126 19.6067 13.7793 19.7929C13.446 19.979 13.0238 19.8606 12.837 19.5284C12.69 19.2673 12.4076 19.1732 12.1406 19.1878C11.869 19.2026 11.5917 19.3205 11.4729 19.5594Z" fill="#3D3D3D"/>
<path fill-rule="evenodd" clip-rule="evenodd" d="M15.0024 3.55561C15.8521 2.77392 17.0869 2.88826 17.7553 3.45802C18.5107 4.10178 18.6199 5.38646 17.8676 6.6732C17.4812 7.37394 16.6116 8.08795 15.7557 8.62871C15.2958 8.91953 14.709 8.91953 14.2491 8.62871C13.3934 8.08808 12.524 7.3742 12.138 6.67488C11.385 5.38698 11.4939 4.10191 12.2495 3.45802C12.9179 2.88826 14.1526 2.77392 15.0024 3.55561ZM14.5649 4.61457C14.1489 3.90546 13.324 3.87271 12.908 4.22734C12.7129 4.3935 12.6313 4.64912 12.6313 4.93993C12.6313 5.31479 12.7648 5.7407 13.0163 6.16905C13.0187 6.17331 13.0212 6.17769 13.0236 6.18207C13.3409 6.7615 14.0836 7.32689 14.7916 7.77406C14.9203 7.8554 15.0843 7.8554 15.213 7.77406L15.2131 7.77393C15.9211 7.32676 16.6638 6.7615 16.9811 6.18207C16.9835 6.17769 16.986 6.17331 16.9886 6.16905C17.2399 5.7407 17.3736 5.31479 17.3736 4.93993C17.3736 4.64912 17.2918 4.3935 17.0968 4.22734C16.6807 3.87271 15.856 3.90546 15.4399 4.61457C15.3489 4.76964 15.1824 4.86491 15.0024 4.86491C14.8223 4.86491 14.6558 4.76964 14.5649 4.61457Z" fill="#3D3D3D"/>
</svg>

<svg xmlns="http://www.w3.org/2000/svg" width="30" height="30" fill="none" viewBox="0 0 30 30"><path fill="#3d3d3d" fill-rule="evenodd" d="M15.09 22.976c-.131.001-.283.084-.366.14-.743.503-1.632.574-2.63.19-.892-.343-.405-1.633.118-1.41.933.399 1.348.047 2.39-.547.154-.087.38-.096.476-.096h.003c.095 0 .322.009.475.096 1.043.594 1.437.893 2.391.547.663-.239 1.036 1.067.144 1.41-.998.384-1.887.313-2.63-.19-.083-.056-.235-.139-.367-.14z" clip-rule="evenodd"/><path fill="#3d3d3d" fill-rule="evenodd" d="M14.953 11.968c1.22-.027 2.114.072 3.284.3l2.782-1.738a1.206 1.206 0 0 1 1.705.46c2.64 5.039 2.913 10.235-.207 14.171-.483.61-1.071 1.08-1.643 1.518a1.206 1.206 0 0 1-1.686-.218 1.196 1.196 0 0 1 .219-1.681c.421-.323.867-.656 1.222-1.105 2.307-2.91 2.174-6.665.528-10.403l-2.05 1.28a1.2 1.2 0 0 1-.884.158c-1.137-.236-1.93-.355-2.997-.348a1 1 0 0 1-.174.007l-.099-.003-.099.003q-.088.003-.174-.007c-1.067-.007-1.86.112-2.997.348a1.2 1.2 0 0 1-.884-.157l-2.05-1.28c-1.646 3.737-1.78 7.492.528 10.402.355.449.801.782 1.222 1.105.526.403.624 1.157.22 1.68a1.206 1.206 0 0 1-1.687.22c-.572-.44-1.16-.91-1.643-1.519-3.12-3.936-2.848-9.132-.207-14.17a1.203 1.203 0 0 1 1.705-.461l2.783 1.737c1.17-.227 2.062-.326 3.283-.299" clip-rule="evenodd"/><path fill="#3d3d3d" fill-rule="evenodd" d="M17.213 19.497a.694.694 0 0 1-.928.312.69.69 0 0 1-.313-.924c.336-.675 1.067-1.095 1.833-1.137.771-.042 1.556.29 1.98 1.044a.69.69 0 0 1-.265.939.694.694 0 0 1-.943-.265c-.147-.26-.43-.355-.696-.34-.272.015-.55.133-.668.371" clip-rule="evenodd"/><path fill="#3d3d3d" fill-rule="evenodd" d="M11.473 19.56a.694.694 0 0 1-.928.311.69.69 0 0 1-.313-.924c.335-.674 1.066-1.095 1.833-1.137.77-.042 1.556.29 1.98 1.044a.69.69 0 0 1-.266.939.694.694 0 0 1-.942-.265c-.147-.26-.43-.355-.696-.34-.272.015-.55.133-.668.371" clip-rule="evenodd"/><path fill="#3d3d3d" fill-rule="evenodd" d="M15.002 3.556c.85-.782 2.085-.668 2.753-.098.756.644.865 1.928.113 3.215-.387.7-1.256 1.415-2.112 1.956a1.41 1.41 0 0 1-1.507 0c-.856-.54-1.725-1.255-2.111-1.954-.753-1.288-.644-2.573.111-3.217.669-.57 1.904-.684 2.753.098m-.437 1.059c-.416-.71-1.241-.742-1.657-.388-.195.167-.277.422-.277.713 0 .375.134.8.385 1.229l.008.013c.317.58 1.06 1.145 1.768 1.592a.39.39 0 0 0 .421 0c.708-.447 1.45-1.013 1.768-1.592l.008-.013c.25-.428.385-.854.385-1.23 0-.29-.082-.545-.277-.712-.416-.354-1.241-.322-1.657.388a.507.507 0 0 1-.875 0" clip-rule="evenodd"/></svg>
